assets/base/img/common/icon_twitter.svg

<?xml version="1.0" encoding="UTF-8"?>
<svg width="26px" height="21px" viewBox="0 0 26 21" version="1.1" xmlns="http://www.w3.org/2000/svg" xmlns:xlink="http://www.w3.org/1999/xlink">
    <!-- Generator: Sketch 63 (92445) - https://sketch.com -->
    <title>icon_Path</title>
    <desc>Created with Sketch.</desc>
    <g id="PC" stroke="none" stroke-width="1" fill="none" fill-rule="evenodd">
        <g id="news_detail_category" transform="translate(-260.000000, -335.000000)" fill="#1DA1F2" fill-rule="nonzero">
            <g id="icon_sns" transform="translate(260.000000, 335.000000)">
                <g id="icon_twitter">
                    <path d="M8.37746,20.5251367 C17.7800133,20.5251367 22.9228133,12.73519 22.9228133,5.97978333 C22.9228133,5.75852333 22.9228133,5.53826 22.9078633,5.31899333 C23.9083486,4.59532449 24.7719843,3.6992898 25.4583333,2.67284333 C24.5253328,3.08626243 23.5355932,3.35738255 22.5221533,3.47715333 C23.5893282,2.83827212 24.3880364,1.83342275 24.7696367,0.64961 C23.7661503,1.2450738 22.6683106,1.66472698 21.5234933,1.89046 C19.9388758,0.205489631 17.4209336,-0.206912791 15.3815841,0.884504328 C13.3422346,1.97592145 12.2886541,4.29972798 12.81163,6.55286667 C8.70127275,6.34680537 4.87166086,4.40537219 2.27586667,1.21173 C0.919027347,3.54756258 1.61207459,6.53578328 3.85857333,8.03590667 C3.0450354,8.01179486 2.24923511,7.79233447 1.53833333,7.39604667 C1.53833333,7.41697667 1.53833333,7.43890333 1.53833333,7.46083 C1.53899924,9.89428433 3.25434565,11.9902167 5.63961667,12.47207 C4.88700336,12.6773236 4.09735532,12.7073275 3.33133667,12.5597767 C4.00104477,14.6422348 5.92025265,16.0688246 8.10736333,16.1099033 C6.29715259,17.5325772 4.06095598,18.30489 1.75859667,18.30257 C1.35186056,18.3017892 0.945520052,18.2771625 0.541666667,18.2288167 C2.87948383,19.7290756 5.59966369,20.5248545 8.37746,20.52115" id="Path"></path>
                </g>
            </g>
        </g>
    </g>
</svg>

<svg width="26" height="21" xmlns="http://www.w3.org/2000/svg"><path d="M8.377 20.525c9.403 0 14.546-7.79 14.546-14.545 0-.221 0-.442-.015-.661 1-.724 1.864-1.62 2.55-2.646-.933.413-1.922.684-2.936.804A5.13 5.13 0 0024.77.65a10.245 10.245 0 01-3.247 1.24 5.117 5.117 0 00-8.711 4.663A14.513 14.513 0 012.276 1.212a5.116 5.116 0 001.583 6.824 5.074 5.074 0 01-2.32-.64v.065a5.114 5.114 0 004.1 5.011 5.104 5.104 0 01-2.308.088 5.118 5.118 0 004.776 3.55 10.258 10.258 0 01-7.565 2.119 14.473 14.473 0 007.835 2.292" fill="#1DA1F2"/></svg>
